X:4585
T:Polska
C:e. Hans Brimi 
D:Filarfolket
M:3/4
O:Sweden
R:Polska
Z:Richard Robinson 
%%TUNEURL: http://www.leeds.ac.uk/music/Info/RRTuneBk/gettune/00000a53.html
%%ID:00000a53
K:D dorian
Df d<f e>^c|de {gfe}fa g>e|\
(3:2f2d2f2 e>d |1 {^cB}c2 A4 :|2 {^cB}c2 d4::
(3:2e2^g2a2 b>c'|a>g e<d c>B|\
A>G A<B c2|{d^c}d2 {ed}e2 {^fe}f2 \
|1 {^gf}g2 e4 :|2 {^gf}g2 a4 :|
